X:48
T:Katy's Capers
M:6/8
L:1/8
S:arranged by J. Rocke
K:D minor
|:"Dm"A2d cAG | FGA "C"G2E | "Dm"DEF- "Bb"FEF | "Gm"GFG "A7"A2A- |
"Dm"Ade fed | fga "C"g3 | "Bb"fed cAG | "C7"EDC D3 :|
"Dm"fga d2a | e2a "Bb"fed | "C"efg c2g | d2g "Am"efe |
"Dm"fga "C"gfe | "Bb"fed "Am"cAG | "Gm"FED F2A | [1"A7"BAG A3 :|[2"Am"EDC "Dm"D3 |]
